teeny/solid/bold.svg

<svg width="15" height="15" viewBox="0 0 15 15" fill="none" xmlns="http://www.w3.org/2000/svg">
<path fill-rule="evenodd" clip-rule="evenodd" d="M3 1.57921C3 1.25932 3.25932 1 3.57921 1H8.5C10.433 1 12 2.567 12 4.5C12 5.59515 11.497 6.57282 10.7095 7.2146C12.0465 7.70695 13 8.99212 13 10.5C13 12.433 11.433 14 9.5 14H3.58911C3.26374 14 3 13.7362 3 13.4109V1.57921ZM4 8V13H9.5C10.8807 13 12 11.8807 12 10.5C12 9.11929 10.8807 8 9.5 8H4ZM4 7H8.5C9.88071 7 11 5.88071 11 4.5C11 3.11929 9.88071 2 8.5 2H4V7Z" fill="black"/>
</svg>

<svg viewBox="0 0 15 15" xmlns="http://www.w3.org/2000/svg"><path fill-rule="evenodd" d="M3 1.57c0-.32.25-.58.57-.58h4.92c1.93 0 3.5 1.56 3.5 3.5 0 1.09-.51 2.07-1.3 2.71 1.33.49 2.29 1.77 2.29 3.28 0 1.93-1.57 3.5-3.5 3.5H3.56c-.33 0-.59-.27-.59-.59V1.55Zm1 6.42v5h5.5c1.38 0 2.5-1.12 2.5-2.5 0-1.39-1.12-2.5-2.5-2.5H4Zm0-1h4.5c1.38 0 2.5-1.12 2.5-2.5 0-1.39-1.12-2.5-2.5-2.5H4v5Z"/></svg>
